X:1
T:Jerusalem (Staniforth), CM
T:Jerusalem (Staniforth), CM
T:Thomas Worsley Staniforth, 1866
T:Public Domain Courtesy of the Cyber Hymnal™
C:Thomas Worsley Staniforth, 1866
Z:Public Domain
Z:Courtesy of the Cyber Hymnal™
%%score ( 1 2 ) 3
L:1/8
Q:1/4=110
M:4/4
K:Eb
V:1 treble 
V:2 treble 
V:3 bass 
V:1
 [B,E]2 | [EG]3 [EG] [EA]2 [EG]2 | [EF]2 [DG]2 E2 [Ec]2 | [DB]2 [EG]2 [CG]2 [CF]2 | [DF]6 [DB]2 | %5
 [Ee]3 [Ee] [Ed]2 [Fc]2 | [FB]2 [DG]2 E2 [EF]2 | [EG]2 (AG) F3 z G | E6 |] %9
V:2
 x2 | x8 | x4 E2 x2 | x8 | x8 | x8 | x4 E2 x2 | x2 E2 E2 D2 x | E6 |] %9
V:3
 [E,G,]2 | [E,B,]3 [E,B,] [E,C]2 [E,B,]2 | [B,,B,]2 [B,,A,]2 [C,G,]2 [A,,A,]2 | %3
 [B,,F,]2 [C,E,]2 [E,G,]2 [F,=A,]2 | [B,,B,]6 [A,B,]2 | [G,B,]3 [G,B,] [A,E]2 [=A,E]2 | %6
 [B,D]2 [B,,B,]2 [C,G,]2 [C,=A,]2 | [B,,B,]2 ([A,,C][B,,B,]) [C,=A,]2 [B,,_A,]2 x | [E,G,]6 |] %9

